packages/icons/src/svg/tmc-colored.svg

<svg xmlns="http://www.w3.org/2000/svg" viewBox="0 0 16 16">
<g fill="none">
  <g class="ti-tmc-positive-bg" fill="#737785" fill-rule="nonzero">
    <path d="M15.9981,7.9989 C15.9981,12.4169 12.4161,15.9979 7.9991,15.9979 C3.5811,15.9979 0.0001,12.4169 0.0001,7.9989 C0.0001,3.5809 3.5811,-0.0001 7.9991,-0.0001 C12.4161,-0.0001 15.9981,3.5809 15.9981,7.9989"/>
  </g>  
  <g class="ti-tmc-positive-logo" fill="#FFF" fill-rule="nonzero">
    <path d="M12.3174,12.0858 L11.7084,11.4768 L11.4004,11.7848 L12.0084,12.3938 C11.1244,13.2108 9.9934,13.7638 8.7414,13.9278 C8.6364,13.7048 8.4374,13.5348 8.1944,13.4708 L8.1944,12.3648 L7.7584,12.3648 L7.7584,13.4688 C7.5114,13.5328 7.3094,13.7038 7.2024,13.9308 C5.9184,13.7668 4.7604,13.1918 3.8644,12.3448 L4.4864,11.7228 L4.1784,11.4138 L3.5584,12.0338 C2.7524,11.1518 2.2084,10.0278 2.0464,8.7858 C2.2804,8.6808 2.4574,8.4738 2.5224,8.2218 L3.5314,8.2218 L3.5314,7.7848 L2.5194,7.7848 C2.4524,7.5378 2.2774,7.3368 2.0474,7.2328 C2.2124,5.9818 2.7634,4.8528 3.5804,3.9698 L4.1704,4.5608 L4.4794,4.2518 L3.8874,3.6598 C4.7824,2.8208 5.9354,2.2558 7.2134,2.0958 C7.3214,2.3098 7.5184,2.4718 7.7554,2.5338 L7.7554,3.6018 L8.1914,3.6018 L8.1914,2.5338 C8.4274,2.4718 8.6234,2.3118 8.7314,2.0978 C9.9754,2.2588 11.1004,2.8028 11.9834,3.6088 L11.4104,4.1818 L11.7194,4.4898 L12.2934,3.9158 C13.1424,4.8128 13.7164,5.9718 13.8794,7.2578 C13.6734,7.3668 13.5194,7.5598 13.4574,7.7898 L12.4444,7.7968 L12.4444,8.2328 L13.4574,8.2258 C13.5184,8.4578 13.6734,8.6508 13.8804,8.7618 C13.7194,10.0378 13.1554,11.1898 12.3174,12.0858 M15.1314,8.0098 C15.1314,7.5858 14.8224,7.2358 14.4184,7.1698 C14.0404,4.2498 11.7294,1.9378 8.8104,1.5588 C8.7374,1.1608 8.3904,0.8598 7.9734,0.8598 C7.5564,0.8598 7.2104,1.1598 7.1364,1.5558 C4.2034,1.9268 1.8794,4.2478 1.5044,7.1808 C1.1284,7.2688 0.8474,7.6058 0.8474,8.0098 C0.8474,8.4128 1.1274,8.7498 1.5044,8.8378 C1.8754,11.7748 4.2024,14.1018 7.1414,14.4718 C7.2234,14.8558 7.5644,15.1438 7.9734,15.1438 C8.3824,15.1438 8.7244,14.8548 8.8054,14.4698 C11.7304,14.0908 14.0444,11.7738 14.4194,8.8488 C14.8224,8.7818 15.1314,8.4318 15.1314,8.0098"/>
    <path d="M7.9732,9.0839 C7.3682,9.0839 6.8762,8.5929 6.8762,7.9859 C6.8762,7.3809 7.3682,6.8919 7.9732,6.8919 C8.5782,6.8919 9.0702,7.3809 9.0702,7.9859 C9.0702,8.5929 8.5782,9.0839 7.9732,9.0839 L7.9732,9.0839 Z M9.9382,8.1409 C9.9422,8.0939 9.9452,8.0469 9.9452,7.9989 C9.9452,7.7619 9.9012,7.5339 9.8252,7.3229 L10.5602,6.6739 L9.6122,6.8999 C9.4492,6.6559 9.2322,6.4519 8.9792,6.3009 L9.3702,3.7099 L8.1152,6.0269 C8.0662,6.0229 8.0172,6.0199 7.9682,6.0199 C7.6952,6.0199 7.4352,6.0749 7.1992,6.1749 L6.5392,5.4309 L6.7772,6.4209 C6.5742,6.5749 6.4012,6.7669 6.2692,6.9859 L4.4592,6.8959 L5.9962,7.8549 C5.9932,7.9019 5.9892,7.9499 5.9892,7.9989 C5.9892,8.2129 6.0242,8.4189 6.0872,8.6119 L5.3262,9.2839 L6.2942,9.0519 C6.4612,9.3159 6.6892,9.5389 6.9582,9.6989 L6.9582,9.6999 L6.4362,12.2889 L7.8222,9.9709 C7.8702,9.9749 7.9182,9.9789 7.9682,9.9789 C8.2212,9.9789 8.4632,9.9289 8.6862,9.8409 L9.3332,10.5699 L9.1042,9.6159 C9.3312,9.4569 9.5222,9.2499 9.6642,9.0109 L11.4732,9.1149 L9.9382,8.1409 Z"/>
    <path d="M7.9732,7.4735 C7.6892,7.4735 7.4592,7.7025 7.4592,7.9875 C7.4592,8.2715 7.6892,8.5015 7.9732,8.5015 C8.2572,8.5015 8.4882,8.2715 8.4882,7.9875 C8.4882,7.7025 8.2572,7.4735 7.9732,7.4735"/>
  </g>
</g>
</svg>

<svg xmlns="http://www.w3.org/2000/svg" viewBox="0 0 16 16">
	<g fill="none">
		<path d="M15.998 7.999A8 8 0 1 1 0 7.999a8 8 0 0 1 15.998 0" class="ti-tmc-positive-bg" fill="#737785"/>
		<g class="ti-tmc-positive-logo" fill="#FFF">
			<path d="M12.317 12.086l-.609-.61-.308.309.608.609a5.948 5.948 0 0 1-3.267 1.534.844.844 0 0 0-.547-.457v-1.106h-.436v1.104a.851.851 0 0 0-.556.462 5.957 5.957 0 0 1-3.338-1.586l.622-.622-.308-.31-.62.62a5.952 5.952 0 0 1-1.512-3.247.853.853 0 0 0 .476-.564h1.01v-.437H2.518a.852.852 0 0 0-.472-.552A5.942 5.942 0 0 1 3.58 3.97l.59.59.31-.308-.593-.592a5.937 5.937 0 0 1 3.326-1.564.85.85 0 0 0 .542.438v1.068h.436V2.534a.845.845 0 0 0 .54-.436 5.953 5.953 0 0 1 3.252 1.51l-.573.574.31.308.573-.574a5.946 5.946 0 0 1 1.586 3.342.853.853 0 0 0-.422.532l-1.013.007v.436l1.013-.007a.855.855 0 0 0 .423.536 5.952 5.952 0 0 1-1.563 3.324m2.814-4.076a.851.851 0 0 0-.713-.84A6.511 6.511 0 0 0 8.81 1.559a.852.852 0 0 0-1.674-.003A6.512 6.512 0 0 0 1.504 7.18a.852.852 0 0 0 0 1.657 6.512 6.512 0 0 0 5.637 5.634.85.85 0 0 0 1.664-.002 6.514 6.514 0 0 0 5.614-5.621.852.852 0 0 0 .712-.84"/>
			<path d="M7.973 9.084a1.096 1.096 0 1 1 0-2.192 1.096 1.096 0 1 1 0 2.192zm1.965-.943a1.994 1.994 0 0 0-.113-.818l.735-.65-.948.227a1.98 1.98 0 0 0-.633-.6l.391-2.59-1.255 2.317a1.967 1.967 0 0 0-.916.148l-.66-.744.238.99a2.017 2.017 0 0 0-.508.565l-1.81-.09 1.537.959c-.003.047-.007.095-.007.144 0 .214.035.42.098.613l-.76.672.967-.232c.167.264.395.487.664.647l-.522 2.59L7.822 9.97c.048.004.096.008.146.008.253 0 .495-.05.718-.138l.647.729-.229-.954c.227-.16.418-.366.56-.605l1.81.104-1.536-.974z"/>
			<path d="M7.973 7.473a.513.513 0 1 0 0 1.029.515.515 0 1 0 0-1.029"/>
		</g>
	</g>
</svg>
